COLOR/action 16/16/distribute-vertical-top.svg

<svg height="16" viewBox="0 0 16 16" width="16" xmlns="http://www.w3.org/2000/svg"><g transform="matrix(0 .72727273 -.72727273 0 16 -.727273)"><path d="m1 19h2.25 6.75v-11h-2.25-6.75v1.833334z" fill="#1a7fd4" stroke-width="2.03101"/><path d="m12.5 7h1.5v15h-1.5z" fill="#e95420" stroke-width="1.185854"/><path d="m14 8h2.25 6.75v13h-2.25-6.75v-2.166667z" fill="#1a7fd4" stroke-width="2.20794"/><path d="m1 22h1.5v-15h-1.5z" fill="#e95420" stroke-width="1.185854"/><g fill="#c43ac4" fill-rule="evenodd" stroke-width=".990045"><path d="m3.6758924 1.0030674-2.6758924 2.7208586 2.6758924 2.776074v-2.199386h3.4798224v-1.1012275h-2.1592889-1.3205335z"/><path d="m8.3241067 6.496933 2.6758933-2.720859-2.6758933-2.7760739v2.1993864h-3.4798215v1.1012275h2.1592889 1.3205326z"/></g></g></svg>

<?xml version="1.0" encoding="UTF-8" standalone="no"?>
<svg
   xmlns:dc="http://purl.org/dc/elements/1.1/"
   xmlns:cc="http://creativecommons.org/ns#"
   xmlns:rdf="http://www.w3.org/1999/02/22-rdf-syntax-ns#"
   xmlns:svg="http://www.w3.org/2000/svg"
   xmlns="http://www.w3.org/2000/svg"
   xmlns:sodipodi="http://sodipodi.sourceforge.net/DTD/sodipodi-0.dtd"
   xmlns:inkscape="http://www.inkscape.org/namespaces/inkscape"
   viewBox="0 0 16 16"
   version="1.1"
   id="svg18"
   sodipodi:docname="distribute-vertical-top.svg"
   width="16"
   height="16"
   inkscape:version="0.92.4 (5da689c313, 2019-01-14)">
  <metadata
     id="metadata24">
    <rdf:RDF>
      <cc:Work
         rdf:about="">
        <dc:format>image/svg+xml</dc:format>
        <dc:type
           rdf:resource="http://purl.org/dc/dcmitype/StillImage" />
        <dc:title></dc:title>
      </cc:Work>
    </rdf:RDF>
  </metadata>
  <defs
     id="defs22" />
  <sodipodi:namedview
     pagecolor="#ffffff"
     bordercolor="#666666"
     borderopacity="1"
     objecttolerance="10"
     gridtolerance="10"
     guidetolerance="10"
     inkscape:pageopacity="0"
     inkscape:pageshadow="2"
     inkscape:window-width="1108"
     inkscape:window-height="636"
     id="namedview20"
     showgrid="false"
     inkscape:zoom="9.8333333"
     inkscape:cx="12"
     inkscape:cy="12"
     inkscape:window-x="0"
     inkscape:window-y="27"
     inkscape:window-maximized="0"
     inkscape:current-layer="svg18" />
  <g
     transform="matrix(0,0.72727273,-0.72727273,0,16,-0.72727279)"
     id="g16">
    <path
       d="M 1,19 H 3.25 10 V 8 H 7.75 1 v 1.833334 z"
       id="path2"
       inkscape:connector-curvature="0"
       style="fill:#1a7fd4;stroke-width:2.03100991" />
    <path
       d="M 12.5,7 H 14 v 15 h -1.5 z"
       id="path4"
       inkscape:connector-curvature="0"
       style="fill:#e95420;stroke-width:1.18585396" />
    <path
       d="M 14,8 H 16.25 23 V 21 H 20.75 14 v -2.166667 z"
       id="path6"
       inkscape:connector-curvature="0"
       style="fill:#1a7fd4;stroke-width:2.2079401" />
    <path
       d="M 1,22 H 2.5 V 7 H 1 Z"
       id="path8"
       inkscape:connector-curvature="0"
       style="fill:#e95420;stroke-width:1.18585396" />
    <g
       id="g14"
       style="fill:#c43ac4;fill-rule:evenodd;stroke-width:0.99004501">
      <path
         d="M 3.6758924,1.0030674 1,3.723926 3.6758924,6.5 V 4.300614 H 7.1557148 V 3.1993865 H 4.9964259 3.6758924 Z"
         id="path10"
         inkscape:connector-curvature="0" />
      <path
         d="M 8.3241067,6.496933 11,3.776074 8.3241067,1.0000001 V 3.1993865 H 4.8442852 V 4.300614 h 2.1592889 1.3205326 z"
         id="path12"
         inkscape:connector-curvature="0" />
    </g>
  </g>
</svg>
